static/images/mobile/copyright/wikipedia-tagline-lo.svg

<?xml version="1.0" encoding="UTF-8"?>
<svg width="86px" height="18px" viewBox="0 0 86 18" version="1.1" xmlns="http://www.w3.org/2000/svg" xmlns:xlink="http://www.w3.org/1999/xlink">
    <title>lo-tagline</title>
    <g id="Page-1" stroke="none" stroke-width="1" fill="none" fill-rule="evenodd">
        <path d="M1.56201054,11.4179683 C1.39376228,11.4179683 1.2778094,11.4566193 1.21415083,11.5339212 C1.15503646,11.6066779 1.12547928,11.7135294 1.12548143,11.8544975 C1.12547928,12.0181918 1.16185653,12.1318775 1.23461317,12.1955328 C1.30736659,12.2591882 1.41649833,12.2910266 1.56201054,12.2910266 C1.72570601,12.2910266 1.83938625,12.2546429 1.90304911,12.1818862 C1.96670661,12.1091403 1.99853643,12 1.99853966,11.8544975 C1.99853643,11.6907923 1.96215919,11.5793955 1.88940684,11.5202747 C1.8166502,11.4566193 1.70751738,11.4225136 1.56201054,11.4179683 M6.29562266,11.0087216 L6.29562266,8.21902927 C5.97731369,8.28268461 5.18837959,8.31452303 3.92881606,8.31451229 C1.44605551,8.30997776 0.20922374,7.73475864 0.218318589,6.58886569 C0.227412364,5.52937595 1.46424414,4.99963108 3.92881606,4.99962033 C5.73858679,4.99963108 6.90266407,5.34976772 7.42104898,6.05001952 C7.71206051,5.80447794 7.85757057,5.61804643 7.85757809,5.49071424 L7.85757809,5.47707842 C7.81209847,5.09512484 7.58019272,4.68133285 7.16185975,4.23569169 L8.25318254,3.62183237 C8.78064617,4.39940757 9.0534766,5.01554491 9.07167489,5.47025513 C9.06711887,6.1477913 8.5782976,6.86396768 7.60521,7.61879502 L7.60521,11.5270979 C7.60520248,12.6638896 6.87310689,13.2300182 5.40892323,13.2255046 C4.39944441,13.2209169 3.79694397,12.6889047 3.60141976,11.6294042 C3.40133953,10.524451 2.91251826,9.96514572 2.13495487,9.95149915 C1.82574397,9.94695388 1.64385774,10.1356634 1.58929294,10.5176277 C2.62149921,10.522173 3.13305653,10.9405103 3.12396598,11.7726395 C3.1148679,12.7457368 2.63968783,13.2300182 1.69842576,13.2255046 C0.561629799,13.2209169 -0.00449339247,12.6843487 2.68547291e-05,11.6157684 C0.00460145658,9.82873373 0.67985639,8.93520565 2.02582205,8.93520565 C3.46272654,8.93520565 4.37898208,9.69913428 4.77459189,11.2269808 C4.94283156,11.8863251 5.18155845,12.2137247 5.49077257,12.2091686 C6.02733321,12.2000781 6.29561621,11.7999327 6.29562266,11.0087216 M3.92881606,7.27775967 C5.6203602,7.27775967 6.46386125,7.12088857 6.45933957,6.80712487 C6.45933957,6.31148569 5.61581385,6.06366609 3.92881606,6.06366609 C2.22362213,6.06366609 1.37102838,6.23873979 1.37102838,6.58886569 C1.37102838,7.04358665 2.22362213,7.27321439 3.92881606,7.27775967 M12.8981252,5.28609088 C14.8943318,5.28609088 15.892442,6.20917938 15.892442,8.05532413 L15.892442,13.10952 L14.6374216,13.10952 L14.6374216,8.23266509 C14.6374163,6.95491617 14.0576519,6.31604171 12.8981252,6.31603096 C12.3979333,6.31604171 12.00915,6.51156377 11.7317743,6.90261864 C12.7230558,6.90261864 13.2186983,7.34142576 13.2187015,8.21902927 C13.2186983,9.12391517 12.6980461,9.57635812 11.656746,9.57635812 C10.6336293,9.57635812 10.122073,9.12391517 10.122073,8.21902927 C10.122073,6.26374418 11.0474223,5.28609088 12.8981252,5.28609088 M11.2543205,8.21902927 C11.2543183,8.46912687 11.3884609,8.5941703 11.656746,8.5941703 C11.9614041,8.5941703 12.1137343,8.46912687 12.1137375,8.21902927 C12.1137343,7.96893166 11.9727727,7.84388823 11.6908496,7.84387749 C11.3998284,7.84388823 11.2543183,7.96893166 11.2543205,8.21902927 M18.9140423,11.4179683 C18.7457951,11.4179683 18.6298422,11.4566193 18.5661837,11.5339212 C18.5070682,11.6066779 18.4775121,11.7135294 18.4775132,11.8544975 C18.4775121,12.0181918 18.5138894,12.1318775 18.586646,12.1955328 C18.6593984,12.2591882 18.7685312,12.2910266 18.9140423,12.2910266 C19.0777388,12.2910266 19.191418,12.2546429 19.2550809,12.1818862 C19.3187384,12.1091403 19.3505693,12 19.3505714,11.8544975 C19.3505693,11.6907923 19.314192,11.5793955 19.2414397,11.5202747 C19.168682,11.4566193 19.0595502,11.4225136 18.9140423,11.4179683 M20.9534515,11.6294042 C20.7533724,10.524451 20.2645511,9.96514572 19.4869866,9.95149915 C19.1777768,9.94695388 18.9958895,10.1356634 18.9413258,10.5176277 C19.973532,10.522173 20.4850894,10.9405103 20.4759977,11.7726395 C20.4669007,12.7457368 19.9917207,13.2300182 19.0504575,13.2255046 C17.918209,13.2209169 17.3520869,12.6843487 17.3520869,11.6157684 C17.3520869,9.82873373 18.0273418,8.93520565 19.3778549,8.93520565 C20.8147594,8.93520565 21.7310149,9.69913428 22.1266237,11.2269808 C22.2948644,11.8863251 22.5335902,12.2137247 22.8428043,12.2091686 C23.379365,12.2000781 23.647648,11.7999327 23.6476555,11.0087216 L23.6476555,8.11671221 C23.647648,6.84350857 22.8518927,6.20690137 21.2603866,6.20690137 C20.0371928,6.20690137 19.3369281,6.46608952 19.1595903,6.98446583 C19.0413616,7.32096665 18.9777009,7.71428878 18.9686082,8.16445373 L17.7204078,8.02804173 C17.7476902,7.523312 17.7999824,7.13452439 17.8772854,6.86168967 C18.2001343,5.72945403 19.3096446,5.16560348 21.2058207,5.17011087 C23.7067613,5.17469403 24.9572428,6.02956041 24.9572428,7.7347479 L24.9572428,11.5270979 C24.9572428,12.6638896 24.2251397,13.2300182 22.760955,13.2255046 C21.7514773,13.2209169 21.1489768,12.6889047 20.9534515,11.6294042 M29.5135151,5.28609088 C31.5097205,5.28609088 32.5078319,6.20917938 32.5078319,8.05532413 L32.5078319,13.10952 L31.2528104,13.10952 L31.2528104,8.23266509 C31.252805,6.95491617 30.6730406,6.31604171 29.5135151,6.31603096 C29.013322,6.31604171 28.6245387,6.51156377 28.3471641,6.90261864 C29.3384457,6.90261864 29.834087,7.34142576 29.8340913,8.21902927 C29.834087,9.12391517 29.3134359,9.57635812 28.2721359,9.57635812 C27.2490191,9.57635812 26.7374628,9.12391517 26.7374628,8.21902927 C26.7374628,6.26374418 27.6628121,5.28609088 29.5135151,5.28609088 M27.8697103,8.21902927 C27.8697081,8.46912687 28.0038496,8.5941703 28.2721359,8.5941703 C28.576794,8.5941703 28.7291241,8.46912687 28.7291273,8.21902927 C28.7291241,7.96893166 28.5881615,7.84388823 28.3062394,7.84387749 C28.0152182,7.84388823 27.8697081,7.96893166 27.8697103,8.21902927 M35.768159,7.08677214 C36.0591759,7.08678288 36.2046849,6.9412696 36.2046881,6.65024302 C36.2046849,6.35923794 36.0591759,6.21372465 35.768159,6.21371391 C35.4862316,6.21372465 35.3407226,6.35923794 35.3316299,6.65024302 C35.3316278,6.9412696 35.4771378,7.08678288 35.768159,7.08677214 M34.0766084,13.3073201 L34.0766084,12.3319448 L34.908742,12.3319448 C35.3316278,12.3319448 35.6385617,12.2182699 35.829546,11.9909094 C36.0250713,11.7590037 36.1228356,11.2883689 36.1228388,10.5790051 L36.1228388,8.13035879 C34.8496276,8.09398584 34.2130226,7.61198248 34.2130236,6.68434871 C34.2130226,5.67943451 34.7268536,5.17469403 35.7545167,5.17010717 C36.8367425,5.16560348 37.377856,5.66124266 37.3778603,6.65706631 L37.3778603,11.0973921 C37.8007428,11.865866 38.3100264,12.2478303 38.9057122,12.2432743 C39.9379152,12.238729 40.4540189,11.8340276 40.4540264,11.0291807 L40.4540264,5.47025513 L41.7090468,5.47025513 L41.7090468,11.0291807 C41.7090468,12.5479367 40.7836889,13.3073201 38.9329946,13.3073201 C38.0917619,13.3073201 37.4801676,13.0458539 37.0982087,12.5229323 C36.579827,13.0458539 35.8272702,13.3073201 34.8405349,13.3073201 L34.0766084,13.3073201 M39.0148439,14.8283433 C39.0148482,14.5373275 38.8670644,14.3918142 38.5714947,14.3918142 C38.2759315,14.3918142 38.1281488,14.5373275 38.1281445,14.8283433 C38.1281488,15.1239152 38.2759315,15.2716957 38.5714947,15.2716957 C38.8670644,15.2671504 39.0148482,15.1193699 39.0148439,14.8283433 M38.3873337,17.3452117 C39.0421306,16.8404712 39.3695269,16.381205 39.3695237,15.967413 C39.3695269,15.8901111 39.3581594,15.8150872 39.3354201,15.7423305 C39.1535361,15.9060249 38.9079891,15.9878721 38.5987771,15.9878828 C37.7848376,15.9878721 37.3778603,15.6286449 37.3778603,14.9102013 C37.3778603,14.0644254 37.7643752,13.6415321 38.5373901,13.6415321 C38.9966585,13.6415321 39.4036315,13.8188731 39.7583081,14.173555 C40.1721033,14.587347 40.3789971,15.1102686 40.3789971,15.7423305 C40.3789971,16.2743427 39.9151878,17.0269027 38.9875615,18 L38.3873337,17.3452117 M45.0785068,11.4725331 C44.7920319,11.4725331 44.6487956,11.6180464 44.6487977,11.9090623 C44.6487956,12.2000781 44.7920319,12.3455914 45.0785068,12.3455914 C45.37407,12.3455914 45.5218538,12.2000781 45.521856,11.9090623 C45.5218538,11.6180464 45.37407,11.4725331 45.0785068,11.4725331 M45.0785068,6.18643151 C44.7920319,6.18644226 44.6487956,6.33195554 44.6487977,6.62296063 C44.6487956,6.9139872 44.7920319,7.05950049 45.0785068,7.05948974 C45.37407,7.05950049 45.5218538,6.9139872 45.521856,6.62296063 C45.5218538,6.33195554 45.37407,6.18644226 45.0785068,6.18643151 M46.7768774,11.8544975 C46.7768731,12.7866658 46.2107499,13.2527553 45.0785068,13.2527553 C44.0326539,13.2527553 43.5097302,12.7957563 43.5097302,11.8817799 C43.5097302,10.935965 44.1804366,10.4630629 45.521856,10.4630522 L45.521856,7.95301783 C45.3263253,7.98940152 45.1785415,8.00758262 45.0785068,8.00758262 C44.0326539,8.00758262 43.5097302,7.51648871 43.5097302,6.53429015 C43.5097302,5.70217163 44.0326539,5.28609088 45.0785068,5.28609088 C45.842429,5.28609088 46.3244291,5.47026588 46.5245093,5.83857288 C46.87009,5.47026588 47.4725904,5.28609088 48.3320128,5.28609088 C50.1781597,5.28609088 51.1012439,6.01820259 51.1012439,7.48238303 L51.1012439,13.10952 L49.8462224,13.10952 L49.8462224,7.48238303 C49.846216,6.70936384 49.3323849,6.32285425 48.3047293,6.32285425 C47.6817612,6.32285425 47.1724776,6.64570849 46.7768774,7.2913955 L46.7768774,11.8544975 M51.3809358,2.62599797 C51.3854429,3.05799256 51.0057544,3.59910599 50.2418269,4.24933827 L49.3005616,3.30806867 C49.6916207,2.98978119 49.8871492,2.72604776 49.8871471,2.51685764 C49.8916967,2.13035879 49.1050352,1.93483672 47.5271616,1.9302807 C47.2316005,1.93029145 47.0087886,1.939382 46.8587268,1.9575631 C47.0679018,2.26678152 47.1497512,2.61918543 47.1042737,3.01477483 C47.0087886,3.81508716 46.4676751,4.21752134 45.4809313,4.22205587 C44.4396355,4.22661189 43.9167107,3.73551798 43.9120999,2.74877414 C43.9076159,2.36682056 44.1849937,1.95984111 44.7442883,1.52784653 C45.2899566,1.0913389 46.2039385,0.873058229 47.486237,0.873058229 C50.073584,0.873058229 51.3718017,1.45737864 51.3809358,2.62599797 M45.4672901,3.17165668 C45.7674104,3.1762127 45.9174668,3.03525543 45.9174604,2.74877414 C45.9174668,2.46230358 45.7810516,2.32134632 45.5082148,2.32588085 C45.2217496,2.32589159 45.0807869,2.46912687 45.0853268,2.75558668 C45.0853344,3.03297742 45.2126547,3.17166742 45.4672901,3.17165668 M54.729892,5.47025513 L55.9849135,5.47025513 L55.9849135,10.4084874 C55.9849092,11.6589647 56.6260606,12.2842033 57.9083698,12.2842033 C59.0406102,12.2842033 59.6067333,11.6589647 59.6067409,10.4084874 L59.6067409,5.47025513 L60.8617621,5.47025513 L60.8617621,11.1110279 C60.8617621,12.5752191 59.8772901,13.3073201 57.9083698,13.3073201 C56.3941548,13.3073201 55.5438337,13.1799986 55.3574033,12.9253558 C55.1254932,13.1799986 54.5957484,13.3073201 53.7681644,13.3073201 C52.8678216,13.3073201 52.4176524,12.9526382 52.4176524,12.2432743 C52.4176524,11.5612036 52.7723311,11.2201683 53.4816917,11.2201575 C54.1364832,11.2201683 54.4593332,11.4998155 54.4502405,12.0591208 C54.636672,12.0591208 54.7298899,11.7430899 54.729892,11.1110279 L54.729892,5.47025513 M66.2365269,12.0045453 C66.2319753,12.513831 66.0773713,12.8571444 65.7727146,13.0344854 C65.4680501,13.2163716 64.9633138,13.3073201 64.2585043,13.3073201 C63.1580857,13.3073201 62.6078785,12.5661286 62.6078785,11.0837455 L62.6078785,6.84123056 C62.6078785,5.80447794 63.1353499,5.28609088 64.1902966,5.28609088 C65.1179176,5.28609088 65.8227296,5.45435204 66.3047345,5.79083137 L65.8272808,6.59567823 C65.4635029,6.39106561 64.9724081,6.28875931 64.353995,6.28874856 C64.026596,6.28875931 63.8628977,6.46836753 63.8628998,6.82758398 L63.8628998,11.8408509 C63.9129166,11.6089451 64.026596,11.3884079 64.2039381,11.1792393 C64.3858227,10.9655254 64.6609267,10.8586631 65.029251,10.8586631 C65.8386446,10.8586631 66.2410696,11.2406274 66.2365269,12.0045453 M65.0087887,12.4888266 C65.1724837,12.4888266 65.2838895,12.452443 65.3430063,12.3796971 C65.4066632,12.3069404 65.440767,12.1978108 65.4453178,12.0522975 C65.4453141,11.8886031 65.4066632,11.7749175 65.3293648,11.7112622 C65.2566064,11.6475961 65.1497479,11.6157684 65.0087887,11.6157684 C64.8405401,11.6157684 64.7245871,11.6521414 64.6609296,11.724898 C64.6018134,11.7976547 64.5722568,11.9067842 64.5722595,12.0522975 C64.5677097,12.2159919 64.6018134,12.3296775 64.6745711,12.3933329 C64.7518701,12.456999 64.8632759,12.4888266 65.0087887,12.4888266 M69.1148907,11.4179683 C68.9466432,11.4179683 68.8306902,11.4566193 68.7670316,11.5339212 C68.7079165,11.6066779 68.6783599,11.7135294 68.6783616,11.8544975 C68.6783599,12.0181918 68.7147373,12.1318775 68.7874939,12.1955328 C68.8602469,12.2591882 68.969379,12.2910266 69.1148907,12.2910266 C69.2785868,12.2910266 69.3922662,12.2546429 69.4559291,12.1818862 C69.5195871,12.1091403 69.5514173,12 69.5514198,11.8544975 C69.5514173,11.6907923 69.5150399,11.5793955 69.4422875,11.5202747 C69.3695303,11.4566193 69.2603982,11.4225136 69.1148907,11.4179683 M73.8485032,11.0087216 L73.8485032,8.21902927 C73.5301943,8.28268461 72.7412596,8.31452303 71.481697,8.31451229 C68.9989357,8.30997776 67.7621044,7.73475864 67.7711995,6.58886569 C67.7802932,5.52937595 69.0171244,4.99963108 71.481697,4.99962033 C73.2914677,4.99963108 74.4555441,5.34976772 74.9739299,6.05001952 C75.2649411,5.80447794 75.4104506,5.61804643 75.410459,5.49071424 L75.410459,5.47707842 C75.3649788,5.09512484 75.1330731,4.68133285 74.7147408,4.23569169 L75.8060635,3.62183237 C76.3335269,4.39940757 76.6063573,5.01554491 76.6245556,5.47025513 C76.6199988,6.1477913 76.1311776,6.86396768 75.1580906,7.61879502 L75.1580906,11.5270979 C75.1580825,12.6638896 74.4259875,13.2300182 72.9618035,13.2255046 C71.952325,13.2209169 71.3498244,12.6889047 71.1543001,11.6294042 C70.9542203,10.524451 70.4653992,9.96514572 69.6878352,9.95149915 C69.3786247,9.94695388 69.1967377,10.1356634 69.1421738,10.5176277 C70.1743801,10.522173 70.6859371,10.9405103 70.6768464,11.7726395 C70.6677484,12.7457368 70.1925688,13.2300182 69.251306,13.2255046 C68.1145104,13.2209169 67.5483873,12.6843487 67.5529077,11.6157684 C67.5574816,9.82873373 68.2327369,8.93520565 69.5787029,8.93520565 C71.0156072,8.93520565 71.9318628,9.69913428 72.3274721,11.2269808 C72.4957122,11.8863251 72.7344389,12.2137247 73.0436527,12.2091686 C73.5802132,12.2000781 73.8484965,11.7999327 73.8485032,11.0087216 M71.481697,7.27775967 C73.1732411,7.27775967 74.0167419,7.12088857 74.0122199,6.80712487 C74.0122199,6.31148569 73.168694,6.06366609 71.481697,6.06366609 C69.7765024,6.06366609 68.9239092,6.23873979 68.9239092,6.58886569 C68.9239092,7.04358665 69.7765024,7.27321439 71.481697,7.27775967 M78.9367958,11.4179683 C78.7685483,11.4179683 78.6525953,11.4566193 78.5889366,11.5339212 C78.5298216,11.6066779 78.500265,11.7135294 78.5002666,11.8544975 C78.500265,12.0181918 78.5366424,12.1318775 78.6093989,12.1955328 C78.6821519,12.2591882 78.7912841,12.2910266 78.9367958,12.2910266 C79.100492,12.2910266 79.2141712,12.2546429 79.2778341,12.1818862 C79.3414922,12.1091403 79.3733223,12 79.3733249,11.8544975 C79.3733223,11.6907923 79.3369449,11.5793955 79.2641926,11.5202747 C79.1914354,11.4566193 79.0823032,11.4225136 78.9367958,11.4179683 M80.9762048,11.6294042 C80.7761256,10.524451 80.2873043,9.96514572 79.5097402,9.95149915 C79.2005297,9.94695388 79.0186428,10.1356634 78.9640788,10.5176277 C79.9962852,10.522173 80.5078426,10.9405103 80.498751,11.7726395 C80.489654,12.7457368 80.0144738,13.2300182 79.0732111,13.2255046 C77.9409627,13.2209169 77.37484,12.6843487 77.37484,11.6157684 C77.37484,9.82873373 78.0500948,8.93520565 79.4006079,8.93520565 C80.8375126,8.93520565 81.7537682,9.69913428 82.1493769,11.2269808 C82.3176176,11.8863251 82.5563435,12.2137247 82.8655576,12.2091686 C83.4021182,12.2000781 83.6704012,11.7999327 83.6704087,11.0087216 L83.6704087,8.11671221 C83.6704012,6.84350857 82.874646,6.20690137 81.2831398,6.20690137 C80.0599456,6.20690137 79.3596808,6.46608952 79.1823434,6.98446583 C79.0641145,7.32096665 79.0004541,7.71428878 78.991362,8.16445373 L77.7431615,8.02804173 C77.7704436,7.523312 77.8227361,7.13452439 77.9000392,6.86168967 C78.2228874,5.72945403 79.3323977,5.16560348 81.2285739,5.17011087 C83.7295145,5.17469403 84.9799961,6.02956041 84.9799961,7.7347479 L84.9799961,11.5270979 C84.9799961,12.6638896 84.247893,13.2300182 82.7837082,13.2255046 C81.7742305,13.2209169 81.1717301,12.6889047 80.9762048,11.6294042 M78.9095127,2.20992797 C78.9095197,3.06025982 79.5756806,3.48542038 80.9079977,3.48540963 L80.9079977,4.34483203 C78.7117176,4.34483203 77.6135669,3.6195651 77.6135669,2.168999 C77.6135669,0.723010412 78.8640479,0 81.3649891,0 C83.7113356,0 84.8845055,0.723010412 84.8845045,2.168999 C84.8845055,2.71012318 84.743544,3.1489303 84.4616176,3.48540963 L85.9076202,3.48540963 L85.9076202,4.34483203 L81.8219806,4.34483203 L81.8219806,3.48540963 C82.9951549,3.48542038 83.5840141,3.06025982 83.5885594,2.20992797 C83.593109,1.31414336 82.8519196,0.866245688 81.3649891,0.866234943 C79.728011,0.866245688 78.9095197,1.31414336 78.9095127,2.20992797" id="lo-tagline" fill="#000000" fill-rule="nonzero"></path>
    </g>
</svg>

<svg xmlns="http://www.w3.org/2000/svg" width="86" height="18"><path fill="#000" fill-rule="nonzero" d="M1.562 11.418c-.168 0-.284.039-.348.116-.059.073-.089.18-.089.32 0 .164.037.278.11.342.072.063.181.095.327.095.164 0 .277-.036.341-.11.064-.072.096-.181.096-.327 0-.163-.037-.275-.11-.334-.072-.063-.181-.097-.327-.102m4.734-.41V8.22c-.319.064-1.108.096-2.367.096-2.483-.005-3.72-.58-3.71-1.726.008-1.06 1.245-1.59 3.71-1.59 1.81 0 2.974.35 3.492 1.051.291-.246.437-.432.437-.56v-.013c-.046-.382-.278-.796-.696-1.241l1.091-.614c.528.777.8 1.394.819 1.848-.005.678-.494 1.394-1.467 2.149v3.908c0 1.137-.732 1.703-2.196 1.699-1.01-.005-1.612-.537-1.808-1.597-.2-1.105-.688-1.664-1.466-1.678-.31-.004-.491.185-.546.567 1.032.004 1.544.423 1.535 1.255-.01.973-.484 1.457-1.426 1.453C.562 13.22-.004 12.684 0 11.616c.005-1.787.68-2.68 2.026-2.68 1.437 0 2.353.763 2.749 2.291.168.66.407.987.716.982.536-.009.805-.41.805-1.2M3.929 7.278c1.691 0 2.535-.157 2.53-.47 0-.497-.843-.744-2.53-.744-1.705 0-2.558.175-2.558.525 0 .455.853.684 2.558.689m8.97-1.992c1.995 0 2.993.923 2.993 2.77v5.054h-1.255V8.233c0-1.278-.58-1.917-1.739-1.917-.5 0-.889.196-1.166.587.991 0 1.487.438 1.487 1.316 0 .905-.521 1.357-1.562 1.357-1.023 0-1.535-.452-1.535-1.357 0-1.955.925-2.933 2.776-2.933M11.254 8.22c0 .25.134.375.403.375.304 0 .457-.125.457-.375s-.141-.375-.423-.375c-.291 0-.437.125-.437.375m7.66 3.199c-.168 0-.284.039-.348.116-.059.073-.088.18-.088.32 0 .164.036.278.109.342.072.063.182.095.327.095.164 0 .277-.036.341-.11.064-.072.096-.181.096-.327 0-.163-.037-.275-.11-.334-.072-.063-.181-.097-.327-.102m2.04.211c-.2-1.105-.69-1.664-1.467-1.678-.31-.004-.491.185-.546.567 1.033.004 1.544.423 1.535 1.255-.01.973-.484 1.457-1.426 1.453-1.132-.005-1.698-.542-1.698-1.61 0-1.787.675-2.68 2.026-2.68 1.437 0 2.353.763 2.749 2.291.168.66.407.987.716.982.536-.009.805-.41.805-1.2V8.117c0-1.273-.796-1.91-2.388-1.91-1.223 0-1.923.26-2.1.777-.119.337-.182.73-.191 1.18l-1.249-.136c.028-.505.08-.893.157-1.166.323-1.133 1.433-1.696 3.329-1.692 2.5.005 3.751.86 3.751 2.565v3.792c0 1.137-.732 1.703-2.196 1.699-1.01-.005-1.612-.537-1.808-1.597m8.56-6.343c1.997 0 2.995.923 2.995 2.77v5.054h-1.255V8.233c0-1.278-.58-1.917-1.74-1.917-.5 0-.888.196-1.166.587.991 0 1.487.438 1.487 1.316 0 .905-.52 1.357-1.562 1.357-1.023 0-1.535-.452-1.535-1.357 0-1.955.926-2.933 2.777-2.933M27.87 8.22c0 .25.134.375.402.375.305 0 .457-.125.457-.375s-.14-.375-.423-.375c-.29 0-.436.125-.436.375m7.898-1.132c.291 0 .437-.146.437-.437 0-.29-.146-.436-.437-.436-.282 0-.427.145-.436.436 0 .291.145.437.436.437m-1.691 6.22v-.975h.832c.423 0 .73-.114.92-.341.196-.232.294-.703.294-1.412V8.13c-1.273-.036-1.91-.518-1.91-1.446 0-1.005.514-1.51 1.542-1.514 1.082-.004 1.623.491 1.623 1.487v4.44c.423.769.932 1.15 1.528 1.146 1.032-.004 1.548-.409 1.548-1.214V5.47h1.255v5.56c0 1.518-.925 2.277-2.776 2.277-.841 0-1.453-.261-1.835-.784-.518.523-1.27.784-2.257.784h-.764m4.938 1.521c0-.29-.148-.436-.444-.436-.295 0-.443.145-.443.436 0 .296.148.444.443.444.296-.005.444-.153.444-.444m-.628 2.517c.655-.505.983-.964.983-1.378a.75.75 0 0 0-.035-.225c-.181.164-.427.246-.736.246-.814 0-1.221-.36-1.221-1.078 0-.846.386-1.268 1.16-1.268.459 0 .866.177 1.22.532.414.413.621.936.621 1.568 0 .532-.464 1.285-1.391 2.258l-.6-.655m6.69-5.872c-.286 0-.43.145-.43.436 0 .291.144.437.43.437.296 0 .444-.146.444-.437 0-.291-.148-.436-.443-.436m0-5.287c-.287 0-.43.146-.43.437 0 .291.143.437.43.436.295 0 .443-.145.443-.436 0-.291-.148-.437-.443-.437m1.698 5.668c0 .933-.566 1.399-1.698 1.399-1.046 0-1.57-.457-1.57-1.371 0-.946.671-1.419 2.013-1.419v-2.51a2.65 2.65 0 0 1-.443.055c-1.046 0-1.57-.492-1.57-1.474 0-.832.524-1.248 1.57-1.248.763 0 1.245.184 1.446.553.345-.369.948-.553 1.807-.553 1.846 0 2.77.732 2.77 2.196v5.628h-1.256V7.482c0-.773-.514-1.16-1.541-1.16-.623 0-1.133.324-1.528.97v4.562m4.604-9.228c.004.432-.375.973-1.14 1.623l-.94-.94c.39-.32.586-.583.586-.792.005-.387-.782-.582-2.36-.587-.295 0-.518.01-.668.028.209.309.29.661.245 1.057-.095.8-.636 1.203-1.623 1.207-1.041.005-1.564-.486-1.569-1.473-.004-.382.273-.79.832-1.221.546-.437 1.46-.655 2.742-.655 2.588 0 3.886.584 3.895 1.753m-5.914.546c.3.004.45-.137.45-.423 0-.287-.136-.428-.409-.423-.286 0-.427.143-.423.43 0 .277.128.416.382.416M54.73 5.47h1.255v4.938c0 1.251.641 1.876 1.923 1.876 1.133 0 1.699-.625 1.699-1.876V5.47h1.255v5.641c0 1.464-.985 2.196-2.954 2.196-1.514 0-2.364-.127-2.55-.382-.233.255-.762.382-1.59.382-.9 0-1.35-.354-1.35-1.064 0-.682.354-1.023 1.064-1.023.654 0 .977.28.968.84.187 0 .28-.317.28-.949v-5.64m11.507 6.534c-.005.509-.16.852-.464 1.03-.305.181-.81.272-1.514.272-1.1 0-1.651-.74-1.651-2.223V6.84c0-1.037.527-1.555 1.582-1.555.928 0 1.633.168 2.115.505l-.478.805c-.363-.205-.855-.307-1.473-.307-.327 0-.491.18-.491.539v5.013c.05-.232.164-.453.34-.662.183-.213.458-.32.826-.32.81 0 1.212.382 1.208 1.146m-1.228.484c.163 0 .275-.037.334-.11.064-.072.098-.181.102-.327 0-.163-.038-.277-.116-.34-.072-.064-.18-.096-.32-.096-.168 0-.284.036-.348.109-.06.073-.089.182-.089.327-.004.164.03.278.103.341.077.064.188.096.334.096m4.106-1.071c-.168 0-.284.039-.348.116-.06.073-.089.18-.089.32 0 .164.037.278.11.342.072.063.181.095.327.095.164 0 .277-.036.34-.11.065-.072.096-.181.096-.327 0-.163-.036-.275-.109-.334-.072-.063-.182-.097-.327-.102m4.734-.41V8.22c-.319.064-1.108.096-2.367.096-2.483-.005-3.72-.58-3.71-1.726.008-1.06 1.245-1.59 3.71-1.59 1.81 0 2.974.35 3.492 1.051.29-.246.436-.432.436-.56v-.013c-.045-.382-.277-.796-.695-1.241l1.091-.614c.528.777.8 1.394.819 1.848-.005.678-.494 1.394-1.467 2.149v3.908c0 1.137-.732 1.703-2.196 1.699-1.01-.005-1.612-.537-1.808-1.597-.2-1.105-.689-1.664-1.466-1.678-.31-.004-.491.185-.546.567 1.032.004 1.544.423 1.535 1.255-.01.973-.484 1.457-1.426 1.453-1.136-.005-1.703-.542-1.698-1.61.004-1.787.68-2.68 2.026-2.68 1.437 0 2.353.763 2.748 2.291.169.66.407.987.717.982.536-.009.804-.41.805-1.2m-2.367-3.731c1.691 0 2.535-.157 2.53-.47 0-.497-.843-.744-2.53-.744-1.705 0-2.558.175-2.558.525 0 .455.853.684 2.558.689m7.455 4.14c-.168 0-.284.039-.348.116-.06.073-.089.18-.089.32 0 .164.037.278.11.342.072.063.181.095.327.095.163 0 .277-.036.34-.11.064-.072.096-.181.096-.327 0-.163-.036-.275-.109-.334-.073-.063-.182-.097-.327-.102m2.04.211c-.2-1.105-.69-1.664-1.467-1.678-.31-.004-.491.185-.546.567 1.032.004 1.544.423 1.535 1.255-.01.973-.485 1.457-1.426 1.453-1.132-.005-1.698-.542-1.698-1.61 0-1.787.675-2.68 2.026-2.68 1.437 0 2.353.763 2.748 2.291.169.66.407.987.717.982.536-.009.804-.41.804-1.2V8.117c0-1.273-.795-1.91-2.387-1.91-1.223 0-1.923.26-2.1.777-.119.337-.183.73-.192 1.18l-1.248-.136c.027-.505.08-.893.157-1.166.323-1.133 1.432-1.696 3.329-1.692 2.5.005 3.751.86 3.751 2.565v3.792c0 1.137-.732 1.703-2.196 1.699-1.01-.005-1.612-.537-1.808-1.597M78.91 2.21c0 .851.666 1.276 1.998 1.276v.86c-2.196 0-3.294-.725-3.294-2.176C77.614.723 78.864 0 81.365 0c2.346 0 3.52.723 3.52 2.169 0 .541-.141.98-.423 1.316h1.446v.86h-4.086v-.86c1.173 0 1.762-.425 1.767-1.275.004-.896-.737-1.344-2.224-1.344-1.637 0-2.455.448-2.455 1.344"/></svg>
